flaticon/constructions/construction-1.svg

<svg xmlns="http://www.w3.org/2000/svg" width="32" height="32" viewBox="0 0 24 24">
    <path d="M 23.488281 1.46875 L 22.527344 0.507812 C 21.886719 -0.167969 20.808594 -0.167969 20.128906 0.507812 L 13.257812 7.378906 C 13.113281 7.453125 13.035156 7.59375 13.023438 7.738281 C 13.015625 7.777344 13.019531 7.820312 13.027344 7.863281 C 13.0625 8.1875 13.078125 8.679688 12.859375 8.898438 C 12.621094 9.097656 12.019531 9.058594 11.742188 9.058594 C 11.582031 9.058594 11.421875 9.136719 11.339844 9.296875 L 10.304688 10.335938 C 10.144531 10.496094 10.144531 10.738281 10.304688 10.894531 L 10.902344 11.496094 L 2.472656 19.925781 L 0.792969 21.042969 C 0.714844 21.082031 0.675781 21.164062 0.636719 21.242188 L 0.0742188 22.921875 C -0.00390625 23.042969 0.0351562 23.199219 0.15625 23.320312 L 0.714844 23.878906 C 0.792969 23.960938 0.875 24 0.996094 24 C 1.035156 24 1.074219 24 1.113281 24 L 2.832031 23.441406 C 2.914062 23.402344 2.992188 23.359375 3.03125 23.28125 L 4.152344 21.601562 L 12.578125 13.171875 L 13.140625 13.734375 C 13.21875 13.8125 13.300781 13.851562 13.417969 13.851562 C 13.539062 13.851562 13.617188 13.8125 13.699219 13.691406 L 14.816406 12.574219 C 14.898438 12.496094 14.9375 12.414062 14.9375 12.292969 C 14.9375 12.285156 14.9375 12.277344 14.9375 12.269531 C 14.9375 12.265625 14.9375 12.261719 14.9375 12.253906 C 14.898438 11.933594 14.855469 11.375 15.097656 11.136719 C 15.300781 10.964844 15.773438 10.96875 16.078125 10.976562 C 16.128906 11.003906 16.183594 11.015625 16.253906 11.015625 C 16.335938 11.015625 16.457031 10.976562 16.535156 10.898438 L 23.488281 3.863281 C 23.804688 3.546875 23.964844 3.105469 23.964844 2.667969 C 23.964844 2.226562 23.804688 1.789062 23.488281 1.46875 Z M 2.433594 22.722656 L 1.113281 23.121094 L 0.914062 22.921875 L 1.3125 21.601562 L 2.632812 20.722656 L 3.3125 21.402344 Z M 3.832031 20.804688 L 3.273438 20.246094 L 11.441406 12.035156 L 12.019531 12.613281 Z M 13.417969 12.855469 L 11.183594 10.617188 L 11.742188 10.058594 L 13.976562 12.292969 Z M 14.539062 10.617188 C 14.335938 10.816406 14.21875 11.097656 14.179688 11.375 L 12.660156 9.859375 C 12.941406 9.816406 13.21875 9.699219 13.417969 9.5 C 13.617188 9.296875 13.738281 9.019531 13.777344 8.738281 L 15.296875 10.257812 C 15.015625 10.296875 14.738281 10.417969 14.539062 10.617188 Z M 22.96875 3.347656 L 16.234375 9.996094 L 14 7.761719 L 20.730469 1.109375 C 21.089844 0.75 21.648438 0.75 22.007812 1.109375 L 22.96875 2.066406 C 23.167969 2.226562 23.246094 2.46875 23.246094 2.707031 C 23.246094 2.945312 23.125 3.1875 22.96875 3.347656 Z M 22.96875 3.347656"/>
    <path d="M 21.328125 2.148438 L 15.734375 7.742188 C 15.578125 7.898438 15.578125 8.140625 15.734375 8.300781 C 15.816406 8.378906 15.894531 8.417969 16.015625 8.417969 C 16.136719 8.417969 16.214844 8.378906 16.296875 8.300781 L 21.886719 2.707031 C 22.046875 2.546875 22.046875 2.308594 21.886719 2.148438 C 21.730469 1.988281 21.488281 1.988281 21.328125 2.148438 Z M 21.328125 2.148438"/>
</svg>

<svg xmlns="http://www.w3.org/2000/svg" width="32" height="32" viewBox="0 0 24 24">
    <path d="M23.488 1.469l-.96-.961c-.641-.676-1.72-.676-2.4 0l-6.87 6.87a.438.438 0 0 0-.235.36.34.34 0 0 0 .004.125c.036.324.051.817-.168 1.035-.238.2-.84.16-1.117.16-.16 0-.32.079-.402.239l-1.035 1.039a.385.385 0 0 0 0 .559l.597.601-8.43 8.43-1.679 1.117c-.078.039-.117.121-.156.2l-.563 1.679c-.078.121-.039.277.082.398l.559.559c.078.082.16.121.281.121h.117l1.719-.559c.082-.039.16-.082.2-.16l1.12-1.68 8.426-8.43.563.563c.078.079.16.118.277.118.121 0 .2-.04.281-.16l1.117-1.118a.356.356 0 0 0 .121-.281v-.023-.016c-.039-.32-.082-.879.16-1.117.204-.172.676-.168.981-.16.05.027.106.039.176.039.082 0 .203-.04.281-.118l6.953-7.035c.317-.316.477-.758.477-1.195 0-.441-.16-.879-.477-1.2zM2.434 22.723l-1.32.398-.2-.2.398-1.32 1.32-.878.68.68zm1.398-1.918l-.559-.559 8.168-8.21.579.577zm9.586-7.95l-2.234-2.238.558-.558 2.235 2.234zm1.121-2.238c-.203.2-.32.48-.36.758L12.66 9.859c.281-.043.559-.16.758-.359.2-.203.32-.48.36-.762l1.519 1.52c-.281.039-.559.16-.758.36zm8.43-7.27l-6.735 6.65L14 7.761l6.73-6.653a.891.891 0 0 1 1.278 0l.96.957c.2.16.278.403.278.641s-.121.48-.277.64zm0 0"/>
    <path d="M21.328 2.148l-5.594 5.594a.391.391 0 0 0 0 .559c.082.078.16.117.282.117.12 0 .199-.04.28-.117l5.59-5.594a.385.385 0 0 0 0-.559.385.385 0 0 0-.558 0zm0 0"/>
</svg>
